assets/imgs/site-logo-transparent.svg

<svg fill="none" height="9" viewBox="0 0 48 9" width="48" xmlns="http://www.w3.org/2000/svg"><path d="m2.13.8 1.8 4.81c.04667.11333.08667.24333.12.39.04.14667.07667.28667.11.42.03333.16.06667.32.1.48h.1s-.00667-.04333-.02-.13c-.00667-.08667-.02-.2-.04-.34-.01333-.14-.02667-.29667-.04-.47s-.02-.34667-.02-.52v-4.64h1v7.2h-1.36l-1.78-4.82c-.05333-.13333-.1-.27333-.14-.42-.04-.15333-.07667-.29667-.11-.43-.03333-.14667-.06333-.29333-.09-.44h-.1c.02.14.03667.28667.05.44.01333.13333.02333.28667.03.46.01333.17333.02.35667.02.55v4.66h-1v-7.2zm4.55609 3.73c0-.32667.05334-.62.16-.88.10667-.26667.26-.49.46-.67.2-.18667.44334-.33.73-.43.28667-.1.60667-.15.96-.15.35334 0 .67.05.95.15.28671.1.53001.24333.73001.43.2.18.3533.40333.46.67.1067.26.16.55333.16.88v1.01h-3.52001v.39c0 .39333.10667.7.32.92.22.22.52.33.9.33.28 0 .52334-.04333.73-.13.20667-.08667.35671-.21667.45001-.39h1.08c-.06.22-.1567.42-.29.6-.1333.17333-.3.32333-.5.45-.1933.12667-.4167.22333-.67001.29-.24666.06667-.51333.1-.8.1-.35333 0-.67333-.05-.96-.15-.28-.1-.52-.24333-.72-.43s-.35666-.41-.47-.67c-.10666-.26667-.16-.56333-.16-.89zm1.09.21h2.44001v-.21c0-.38-.1067-.67667-.32001-.89-.21333-.21333-.51333-.32-.9-.32-.38666 0-.68666.10667-.9.32-.21333.21333-.32.51-.32.89zm6.58611.43-1.86-2.67h1.28l1.02 1.55c.06.08.1033.16333.13.25.02.04.0333.07667.04.11h.05c.0067-.03333.02-.07.04-.11.02-.06667.0633-.15.13-.25l1.03-1.55h1.26l-1.85 2.66 1.97 2.84h-1.28l-1.11-1.69c-.0333-.04667-.0633-.09333-.09-.14-.02-.04667-.0367-.08667-.05-.12-.02-.04-.0367-.08-.05-.12h-.06c-.0133.04-.03.08333-.05.13-.0133.03333-.03.07333-.05.12-.02.04-.0467.08333-.08.13l-1.13 1.69h-1.27zm4.1461-2.67h1.55v-1.7h1.1v1.7h2.11v.99h-2.11v2.93c0 .18.0533.32333.16.43.1066.1.2566.15.45.15h1.4v1h-1.45c-.5134 0-.92-.14333-1.22-.43-.2934-.28667-.44-.67-.44-1.15v-2.93h-1.55zm5.6761-1.7h.98l.43 5.1c.0133.13333.0233.28333.03.45.0066.16.01.31.01.45.0066.16667.01.33333.01.5h.13c.0066-.16667.0133-.33333.02-.5.0133-.14.0266-.29.04-.45.0133-.16667.0266-.31667.04-.45l.64-5.1h.96l.62 5.1c.0133.13333.0266.28.04.44.0133.16.0233.31333.03.46.0133.16667.0233.33333.03.5h.14c.0066-.16667.0133-.33333.02-.5.0066-.14.0133-.29.02-.45.0066-.16667.0166-.31667.03-.45l.42-5.1h.96l-.73 7.2h-1.37l-.56-5.11c-.02-.17333-.0334-.34-.04-.5-.0067-.16667-.01-.31667-.01-.45-.0067-.16-.0067-.31 0-.45h-.16v.45c0 .13333-.0034.28333-.01.45-.0067.16-.02.32667-.04.5l-.61 5.11h-1.36zm8.7961 7.3c-.3534 0-.6734-.05-.96-.15-.28-.10667-.52-.25333-.72-.44-.2-.19333-.3567-.42333-.47-.69-.1067-.26667-.16-.56333-.16-.89v-1.37c0-.32667.0533-.62333.16-.89.1133-.26667.27-.49333.47-.68.2-.19333.44-.34.72-.44.2866-.10667.6066-.16.96-.16.3533 0 .67.05.95.15.2866.1.53.24667.73.44.2.18667.3533.41333.46.68.1133.26.17.55667.17.89v1.38c0 .32667-.0534.62667-.16.9-.1067.26667-.26.49333-.46.68s-.4434.33333-.73.44c-.2867.1-.6067.15-.96.15zm-1.21-2.17c0 .37333.1066.66667.32.88.2133.21333.51.32.89.32.3733 0 .6666-.10667.88-.32.22-.21333.33-.50667.33-.88v-1.37c0-.37333-.11-.66667-.33-.88-.2134-.21333-.5067-.32-.88-.32-.3734 0-.67.10667-.89.32-.2134.21333-.32.50667-.32.88zm6.2661-3.43v.95h.09c.0733-.33333.2433-.59.51-.77.2733-.18667.6133-.28 1.02-.28.5866 0 1.0466.18333 1.38.55.3333.36.5.86333.5 1.51v.36h-1.13v-.25c0-.38667-.1034-.68667-.31-.9-.2067-.22-.49-.33-.85-.33-.3534 0-.6334.11-.84.33-.2067.22-.31.52-.31.9v3.43h-1.1v-5.5zm4.6261 2.05c0-.33333.0433-.63.13-.89.0933-.26667.22-.49333.38-.68.1666-.18667.3666-.33.6-.43.2333-.1.49-.15.77-.15.4 0 .73.09333.99.28.2666.18.4366.43667.51.77h.09c-.0067-.11333-.0134-.22667-.02-.34-.0134-.1-.0234-.20333-.03-.31 0-.11333 0-.21333 0-.3v-1.7h1.09v7.2h-1.04v-.95h-.09c-.0734.33333-.2434.59333-.51.78-.26.18-.59.27-.99.27-.28 0-.5367-.05-.77-.15-.2334-.1-.4334-.24333-.6-.43-.16-.18667-.2867-.41333-.38-.68-.0867-.27333-.13-.57667-.13-.91zm1.1.02v1.35c0 .37333.1033.67.31.89.2133.22.5033.33.87.33.3466 0 .6233-.11.83-.33.2066-.22.31-.51333.31-.88v-1.36c0-.37333-.1067-.67-.32-.89-.2067-.22-.48-.33-.82-.33-.3667 0-.6567.11-.87.33-.2067.21333-.31.51-.31.89z" fill="#fff"/></svg>

<svg width="48" height="9" viewBox="0 0 48 9" fill="none" xmlns="http://www.w3.org/2000/svg">
<path d="M2.13 0.8L3.93 5.61C3.97667 5.72333 4.01667 5.85333 4.05 6C4.09 6.14667 4.12667 6.28667 4.16 6.42C4.19333 6.58 4.22667 6.74 4.26 6.9H4.36C4.36 6.9 4.35333 6.85667 4.34 6.77C4.33333 6.68333 4.32 6.57 4.3 6.43C4.28667 6.29 4.27333 6.13333 4.26 5.96C4.24667 5.78667 4.24 5.61333 4.24 5.44V0.8H5.24V8H3.88L2.1 3.18C2.04667 3.04667 2 2.90667 1.96 2.76C1.92 2.60667 1.88333 2.46333 1.85 2.33C1.81667 2.18333 1.78667 2.03667 1.76 1.89H1.66C1.68 2.03 1.69667 2.17667 1.71 2.33C1.72333 2.46333 1.73333 2.61667 1.74 2.79C1.75333 2.96333 1.76 3.14667 1.76 3.34V8H0.76V0.8H2.13ZM6.68609 4.53C6.68609 4.20333 6.73943 3.91 6.84609 3.65C6.95276 3.38333 7.10609 3.16 7.30609 2.98C7.50609 2.79333 7.74943 2.65 8.03609 2.55C8.32276 2.45 8.64276 2.4 8.99609 2.4C9.34943 2.4 9.66609 2.45 9.94609 2.55C10.2328 2.65 10.4761 2.79333 10.6761 2.98C10.8761 3.16 11.0294 3.38333 11.1361 3.65C11.2428 3.91 11.2961 4.20333 11.2961 4.53V5.54H7.77609V5.93C7.77609 6.32333 7.88276 6.63 8.09609 6.85C8.31609 7.07 8.61609 7.18 8.99609 7.18C9.27609 7.18 9.51943 7.13667 9.72609 7.05C9.93276 6.96333 10.0828 6.83333 10.1761 6.66H11.2561C11.1961 6.88 11.0994 7.08 10.9661 7.26C10.8328 7.43333 10.6661 7.58333 10.4661 7.71C10.2728 7.83667 10.0494 7.93333 9.79609 8C9.54943 8.06667 9.28276 8.1 8.99609 8.1C8.64276 8.1 8.32276 8.05 8.03609 7.95C7.75609 7.85 7.51609 7.70667 7.31609 7.52C7.11609 7.33333 6.95943 7.11 6.84609 6.85C6.73943 6.58333 6.68609 6.28667 6.68609 5.96V4.53ZM7.77609 4.74H10.2161V4.53C10.2161 4.15 10.1094 3.85333 9.89609 3.64C9.68276 3.42667 9.38276 3.32 8.99609 3.32C8.60943 3.32 8.30943 3.42667 8.09609 3.64C7.88276 3.85333 7.77609 4.15 7.77609 4.53V4.74ZM14.3622 5.17L12.5022 2.5H13.7822L14.8022 4.05C14.8622 4.13 14.9055 4.21333 14.9322 4.3C14.9522 4.34 14.9655 4.37667 14.9722 4.41H15.0222C15.0289 4.37667 15.0422 4.34 15.0622 4.3C15.0822 4.23333 15.1255 4.15 15.1922 4.05L16.2222 2.5H17.4822L15.6322 5.16L17.6022 8H16.3222L15.2122 6.31C15.1789 6.26333 15.1489 6.21667 15.1222 6.17C15.1022 6.12333 15.0855 6.08333 15.0722 6.05C15.0522 6.01 15.0355 5.97 15.0222 5.93H14.9622C14.9489 5.97 14.9322 6.01333 14.9122 6.06C14.8989 6.09333 14.8822 6.13333 14.8622 6.18C14.8422 6.22 14.8155 6.26333 14.7822 6.31L13.6522 8H12.3822L14.3622 5.17ZM18.5083 2.5H20.0583V0.8H21.1583V2.5H23.2683V3.49H21.1583V6.42C21.1583 6.6 21.2116 6.74333 21.3183 6.85C21.4249 6.95 21.5749 7 21.7683 7H23.1683V8H21.7183C21.2049 8 20.7983 7.85667 20.4983 7.57C20.2049 7.28333 20.0583 6.9 20.0583 6.42V3.49H18.5083V2.5ZM24.1844 0.8H25.1644L25.5944 5.9C25.6077 6.03333 25.6177 6.18333 25.6244 6.35C25.631 6.51 25.6344 6.66 25.6344 6.8C25.641 6.96667 25.6444 7.13333 25.6444 7.3H25.7744C25.781 7.13333 25.7877 6.96667 25.7944 6.8C25.8077 6.66 25.821 6.51 25.8344 6.35C25.8477 6.18333 25.861 6.03333 25.8744 5.9L26.5144 0.8H27.4744L28.0944 5.9C28.1077 6.03333 28.121 6.18 28.1344 6.34C28.1477 6.5 28.1577 6.65333 28.1644 6.8C28.1777 6.96667 28.1877 7.13333 28.1944 7.3H28.3344C28.341 7.13333 28.3477 6.96667 28.3544 6.8C28.361 6.66 28.3677 6.51 28.3744 6.35C28.381 6.18333 28.391 6.03333 28.4044 5.9L28.8244 0.8H29.7844L29.0544 8H27.6844L27.1244 2.89C27.1044 2.71667 27.091 2.55 27.0844 2.39C27.0777 2.22333 27.0744 2.07333 27.0744 1.94C27.0677 1.78 27.0677 1.63 27.0744 1.49H26.9144C26.9144 1.63 26.9144 1.78 26.9144 1.94C26.9144 2.07333 26.911 2.22333 26.9044 2.39C26.8977 2.55 26.8844 2.71667 26.8644 2.89L26.2544 8H24.8944L24.1844 0.8ZM32.9805 8.1C32.6271 8.1 32.3071 8.05 32.0205 7.95C31.7405 7.84333 31.5005 7.69667 31.3005 7.51C31.1005 7.31667 30.9438 7.08667 30.8305 6.82C30.7238 6.55333 30.6705 6.25667 30.6705 5.93V4.56C30.6705 4.23333 30.7238 3.93667 30.8305 3.67C30.9438 3.40333 31.1005 3.17667 31.3005 2.99C31.5005 2.79667 31.7405 2.65 32.0205 2.55C32.3071 2.44333 32.6271 2.39 32.9805 2.39C33.3338 2.39 33.6505 2.44 33.9305 2.54C34.2171 2.64 34.4605 2.78667 34.6605 2.98C34.8605 3.16667 35.0138 3.39333 35.1205 3.66C35.2338 3.92 35.2905 4.21667 35.2905 4.55V5.93C35.2905 6.25667 35.2371 6.55667 35.1305 6.83C35.0238 7.09667 34.8705 7.32333 34.6705 7.51C34.4705 7.69667 34.2271 7.84333 33.9405 7.95C33.6538 8.05 33.3338 8.1 32.9805 8.1ZM31.7705 5.93C31.7705 6.30333 31.8771 6.59667 32.0905 6.81C32.3038 7.02333 32.6005 7.13 32.9805 7.13C33.3538 7.13 33.6471 7.02333 33.8605 6.81C34.0805 6.59667 34.1905 6.30333 34.1905 5.93V4.56C34.1905 4.18667 34.0805 3.89333 33.8605 3.68C33.6471 3.46667 33.3538 3.36 32.9805 3.36C32.6071 3.36 32.3105 3.46667 32.0905 3.68C31.8771 3.89333 31.7705 4.18667 31.7705 4.56V5.93ZM38.0366 2.5V3.45H38.1266C38.1999 3.11667 38.3699 2.86 38.6366 2.68C38.9099 2.49333 39.2499 2.4 39.6566 2.4C40.2432 2.4 40.7032 2.58333 41.0366 2.95C41.3699 3.31 41.5366 3.81333 41.5366 4.46V4.82H40.4066V4.57C40.4066 4.18333 40.3032 3.88333 40.0966 3.67C39.8899 3.45 39.6066 3.34 39.2466 3.34C38.8932 3.34 38.6132 3.45 38.4066 3.67C38.1999 3.89 38.0966 4.19 38.0966 4.57V8H36.9966V2.5H38.0366ZM42.6627 4.55C42.6627 4.21667 42.706 3.92 42.7927 3.66C42.886 3.39333 43.0127 3.16667 43.1727 2.98C43.3393 2.79333 43.5393 2.65 43.7727 2.55C44.006 2.45 44.2627 2.4 44.5427 2.4C44.9427 2.4 45.2727 2.49333 45.5327 2.68C45.7993 2.86 45.9693 3.11667 46.0427 3.45H46.1327C46.126 3.33667 46.1193 3.22333 46.1127 3.11C46.0993 3.01 46.0893 2.90667 46.0827 2.8C46.0827 2.68667 46.0827 2.58667 46.0827 2.5V0.8H47.1727V8H46.1327V7.05H46.0427C45.9693 7.38333 45.7993 7.64333 45.5327 7.83C45.2727 8.01 44.9427 8.1 44.5427 8.1C44.2627 8.1 44.006 8.05 43.7727 7.95C43.5393 7.85 43.3393 7.70667 43.1727 7.52C43.0127 7.33333 42.886 7.10667 42.7927 6.84C42.706 6.56667 42.6627 6.26333 42.6627 5.93V4.55ZM43.7627 4.57V5.92C43.7627 6.29333 43.866 6.59 44.0727 6.81C44.286 7.03 44.576 7.14 44.9427 7.14C45.2893 7.14 45.566 7.03 45.7727 6.81C45.9793 6.59 46.0827 6.29667 46.0827 5.93V4.57C46.0827 4.19667 45.976 3.9 45.7627 3.68C45.556 3.46 45.2827 3.35 44.9427 3.35C44.576 3.35 44.286 3.46 44.0727 3.68C43.866 3.89333 43.7627 4.19 43.7627 4.57Z" fill="white"/>
</svg>
